Sources/FrostedUI/Resources/Icons.xcassets/apps20.imageset/apps-20.svg

<svg width="20" height="20" viewBox="0 0 20 20" fill="none" xmlns="http://www.w3.org/2000/svg" data-fui-icon="true">
  <path
    d="M9.99976 0C10.4139 3.09218e-05 10.7497 0.335797 10.7497 0.749982V3.07024C12.6003 3.42131 13.9997 5.04711 13.9997 6.99983C13.9997 8.1707 13.4958 9.22334 12.694 9.95484L14.4918 13.7663C14.6316 13.6583 14.7635 13.5496 14.8864 13.4401C15.3957 12.9858 15.7625 12.5317 15.9996 12.194C16.1179 12.0256 16.2033 11.8866 16.2574 11.7937C16.2843 11.7475 16.3035 11.7127 16.315 11.6911C16.3208 11.6804 16.3248 11.6725 16.3267 11.6687V11.6677C16.5099 11.2966 16.9593 11.1442 17.3306 11.3269C17.7021 11.5099 17.8552 11.9593 17.6724 12.3308L16.9996 11.9997C17.6416 12.316 17.6712 12.3307 17.6724 12.3317L17.6705 12.3347C17.6698 12.336 17.6694 12.3378 17.6685 12.3395C17.6666 12.3433 17.6636 12.3476 17.6607 12.3532C17.6549 12.3645 17.6471 12.3797 17.6373 12.3981C17.6175 12.4351 17.5899 12.4866 17.5533 12.5495C17.48 12.6752 17.3719 12.8491 17.2271 13.0553C16.9377 13.4675 16.497 14.0137 15.8854 14.5592C15.6618 14.7585 15.414 14.9565 15.1442 15.149L16.9283 18.9292C17.105 19.3038 16.9444 19.7515 16.5699 19.9282C16.1954 20.1048 15.7477 19.9443 15.5709 19.5698L13.8454 15.9127C12.8033 16.4062 11.5289 16.7496 9.99976 16.7496C8.47023 16.7496 7.19536 16.4064 6.15317 15.9127L4.4286 19.5698C4.25184 19.9443 3.80417 20.1049 3.4296 19.9282C3.05511 19.7515 2.89456 19.3038 3.07121 18.9292L4.85437 15.149C4.5848 14.9567 4.33749 14.7584 4.11416 14.5592C3.50252 14.0137 3.06181 13.4675 2.77239 13.0553C2.62761 12.8491 2.51946 12.6752 2.44623 12.5495C2.40962 12.4866 2.38199 12.4351 2.36225 12.3981C2.35238 12.3797 2.34458 12.3645 2.33881 12.3532C2.33594 12.3476 2.33287 12.3433 2.331 12.3395C2.33012 12.3378 2.32971 12.336 2.32904 12.3347L2.32807 12.3327C2.32799 12.3323 2.33602 12.3268 2.99993 11.9997L2.32709 12.3308C2.14434 11.9593 2.29749 11.5099 2.66888 11.3269C3.04009 11.1442 3.48852 11.2969 3.67179 11.6677L3.67276 11.6687C3.67475 11.6725 3.67873 11.6804 3.68448 11.6911C3.696 11.7127 3.71523 11.7475 3.7421 11.7937C3.79622 11.8866 3.88163 12.0256 3.9999 12.194C4.23704 12.5317 4.60379 12.9858 5.11316 13.4401C5.23578 13.5495 5.36718 13.6584 5.5067 13.7663L7.30451 9.95484C6.503 9.22336 5.99985 8.17045 5.99985 6.99983C5.99985 5.0471 7.3992 3.42131 9.24977 3.07024V0.749982C9.24977 0.335809 9.58559 4.99885e-05 9.99976 0ZM11.4069 10.7429C10.969 10.9076 10.4952 10.9997 9.99976 10.9997C9.50396 10.9997 9.02973 10.9078 8.59159 10.7429L6.7928 14.5563C7.65482 14.9647 8.71482 15.2496 9.99976 15.2496C11.2843 15.2496 12.3438 14.9645 13.2057 14.5563L11.4069 10.7429ZM9.99976 4.49989C8.61912 4.49994 7.49982 5.61918 7.49982 6.99983C7.49982 8.38048 8.61912 9.49972 9.99976 9.49977C11.3804 9.49974 12.4997 8.38049 12.4997 6.99983C12.4997 5.61917 11.3804 4.49992 9.99976 4.49989Z"
    fill="currentColor"
  />
</svg>

<svg xmlns="http://www.w3.org/2000/svg" width="20" height="20" fill="none" data-fui-icon="true" viewBox="0 0 20 20"><path fill="currentColor" d="M10 0a.75.75 0 0 1 .75.75v2.32a4.001 4.001 0 0 1 1.944 6.885l1.798 3.811q.21-.162.394-.326c.51-.454.877-.908 1.114-1.246a6 6 0 0 0 .327-.525v-.001a.75.75 0 0 1 1.345.663L17 12c.642.316.671.33.672.332l-.002.003q0 .002-.002.004l-.007.014-.024.045-.084.152a7 7 0 0 1-.326.505 8.8 8.8 0 0 1-2.083 2.094l1.784 3.78a.75.75 0 0 1-1.357.64l-1.726-3.656c-1.042.493-2.316.837-3.845.837s-2.805-.344-3.847-.837L4.43 19.57a.751.751 0 0 1-1.358-.64l1.783-3.781a8.7 8.7 0 0 1-2.408-2.6 5 5 0 0 1-.107-.196l-.008-.014-.002-.004v-.002c-.001 0 .007-.006.67-.333l-.672.33a.75.75 0 0 1 1.345-.662l.012.023.058.103c.054.093.14.232.258.4a7.3 7.3 0 0 0 1.507 1.572l1.798-3.811A4.001 4.001 0 0 1 9.25 3.07V.75A.75.75 0 0 1 10 0m1.407 10.743a4 4 0 0 1-2.815 0l-1.8 3.813c.863.409 1.923.694 3.208.694 1.284 0 2.344-.286 3.206-.694zM10 4.5a2.5 2.5 0 1 0 0 5 2.5 2.5 0 0 0 0-5"/></svg>
